X:1
T:Title
%%score { ( 1 2 ) | ( 3 4 ) }
L:1/8
Q:1/4=100
M:6/8
K:Eb
V:1 treble nm="Grand Piano"
V:2 treble 
V:3 bass 
V:4 bass 
V:1
 B6 | B6 | G3 G3 | G6 | B3 c3 | .d6 | e3 B3 | B6 | B6 | B6 | G3 G3 | G6 | F3 B3 | .d3 z3 | c6 | %15
w: J.~Lincoln~Hall|||||||||||||||
 .B6 | z ff z .e2 | z dd z cc | z Bc dcB | z cc z BB | e3 d3 | ccc z GG | z FB cBA | [EG]3 [DF]3 | %24
w: |||||||||
 z B2- B3 | z B2- B3 | [Ac]de [ce]dc | [B,GB]6 | z3 .B3 | [A,F]3 [CFA]2 [CAc] | [EGB]3 [Af]3 | %31
w: |||||||
 [Ge]6 |] %32
w: |
V:2
 z GG z GG | z GG GGB | z EE z EE | z EE EEE | z AA z AA | z AA A[DAc][DAd] | z GG z _GG | %7
 z GG [EG]GG | z GG z GG | z GG GGB | z EE z EE | z EE EEE | z CC z FF | z Fd dcB | %14
 z FF z [EF][EF] | z FF FFG | A3 G3 | z3 E3 | .D3 z3 | E3 D3 | z cc z BB | z3 B3 | .A3 z3 | x6 | %24
 .G3 B,,3 | .G3 B,,3 | x6 | x6 | [=Ec][E_d][Ec] E-[EA][B,EG] | x6 | x6 | x6 |] %32
V:3
 z EE z EE | z EE E[F,E][G,EG] | z B,B, z B,B, | z B,B, B,[F,B,][G,B,] | z DD z DD | z DD DG,F, | %6
 z EE z EE | z EE z EE | z EE z EE | z EE [E,E][F,E][G,EG] | z B,B, z B,B, | %11
 z B,B, B,[D,B,][E,B,] | z A,A, z DD | z[K:treble] D[DF][K:bass] z[K:treble] [DF][DF] | %14
 z EE z G,,=A,, | z[K:treble] DD .D3 | z cc z BB | z AA z AA | z A[EA] [FA][EA][DA] | z AA z AA | %20
 z GG z FF | z [EA][EA] z EE | z E[B,EG] [CEA][B,EG][A,CF] | [B,,G,B,]3 [B,,F,B,]3 | E G2- G3 | %25
 E G2- G3 | z Bc[K:bass] z[K:treble] BA | E,3- E,D,_D, | [C,B,][C,B,][C,B,] G,CC, | F,3 F,2 F, | %30
 B,3 [B,D]3 | [E,B,E]6 |] %32
V:4
 E,3 B,,3 | .E,6 | E,3 B,,3 | .E,6 | F,3 B,,3 | .F,6 | E,3 E,3 | E,3 E,3 | E,3 B,,3 | E,3 z3 | %10
 E,3 B,,3 | .E,6 | F,3 D,3 | B,,3[K:treble][K:bass] F,,3[K:treble] | .F,,6 | .B,,6[K:treble] | x6 | %17
 F3 z3 | x6 | x6 | E3 D3 | C3 B,3 | .A,3 z3 | x6 | [E,B,-]3 B,3 | [E,B,-]3 B,3 | %26
 [E,A,]3[K:bass] [A,,A,]3[K:treble] | x6 | z3 .C,3 | x6 | x6 | x6 |] %32

